UI/POI/SVG/pharmacy_outline_24px.svg

<svg width="24" height="24" viewBox="0 0 24 24" fill="none" xmlns="http://www.w3.org/2000/svg">
<path d="M16 4H8V2H16V4ZM16 8H8C7.46957 8 6.96086 8.21071 6.58579 8.58579C6.21071 8.96086 6 9.46957 6 10V20H18V10C18 9.46957 17.7893 8.96086 17.4142 8.58579C17.0391 8.21071 16.5304 8 16 8V8ZM16 6C17.0609 6 18.0783 6.42143 18.8284 7.17157C19.5786 7.92172 20 8.93913 20 10V20C20 20.5304 19.7893 21.0391 19.4142 21.4142C19.0391 21.7893 18.5304 22 18 22H6C5.46957 22 4.96086 21.7893 4.58579 21.4142C4.21071 21.0391 4 20.5304 4 20V10C4 8.93913 4.42143 7.92172 5.17157 7.17157C5.92172 6.42143 6.93913 6 8 6H16ZM13 13V10H11V13H8V15H11V18H13V15H16V13H13Z" fill="#0F1621"/>
</svg>

<svg xmlns="http://www.w3.org/2000/svg" width="24" height="24" viewBox="0 0 24 24"><rect width="24" height="24" style="fill:none"/><path d="M16,4H8V2h8Zm0,4H8a2,2,0,0,0-2,2V20H18V10a2,2,0,0,0-2-2m0-2a4,4,0,0,1,4,4V20a2,2,0,0,1-2,2H6a2,2,0,0,1-2-2V10A4,4,0,0,1,8,6Zm-3,7V10H11v3H8v2h3v3h2V15h3V13Z"/></svg>
